src/main/resources/react/src/assets/icons/logo-footer.svg

<svg width="45" height="45" viewBox="0 0 45 45" fill="none" xmlns="http://www.w3.org/2000/svg">
<ellipse cx="5.7061" cy="5.48182" rx="2.91997" ry="2.91542" fill="#3F76C1"/>
<ellipse cx="39.3467" cy="5.48182" rx="2.91997" ry="2.91542" fill="#F8BC26"/>
<ellipse cx="39.3467" cy="38.8334" rx="2.91997" ry="2.91542" fill="#F48F44"/>
<ellipse cx="5.7061" cy="38.8334" rx="2.91997" ry="2.91542" fill="#97C069"/>
<path d="M15.7796 1.10073L14.112 6.64707L13.528 8.51294L13.0608 10.612L12.944 12.7111L12.944 14.8102L13.4112 15.9764L13.8784 16.9093L14.3456 17.609L14.8128 18.0755L15.2799 18.542L15.7471 18.8918L16.2143 19.2417L16.6815 19.4749L17.1487 19.7081L17.6159 19.9414L18.0831 20.1746L18.7839 20.4078L19.4847 20.6411L20.1855 20.9909L20.6548 21.2242L20.653 21.2241L19.7183 21.574L18.4335 21.8072L14.3456 21.8072L13.1776 21.574L12.4768 21.3408L11.5424 20.9909L10.8416 20.6411L10.1408 19.9414L9.44001 18.8918L8.97281 18.0755L8.73921 17.026L8.62241 16.2096L8.73921 12.7111L8.97281 10.612L9.44001 8.51294L9.9072 6.64707L11.6415 0.000212399L15.7796 1.10073Z" fill="#3F76C1"/>
<path d="M1.3683 15.7179L6.90452 13.8705L8.76637 13.2263L10.866 12.6889L12.9748 12.4972L15.0867 12.4207L16.2723 12.8392L17.2232 13.2662L17.9395 13.7016L18.4211 14.1456L18.9027 14.5896L19.267 15.0378L19.6313 15.486L19.8783 15.9384L20.1253 16.3909L20.3722 16.8433L20.6192 17.2958L20.8723 17.9787L21.1255 18.6617L21.4959 19.3403L21.743 19.7949L21.7429 19.7931L22.0702 18.8582L22.271 17.582L22.1633 13.5487L21.8979 12.4048L21.6447 11.7219L21.2681 10.8127L20.8977 10.134L20.1752 9.46811L19.1008 8.81491L18.2672 8.38369L17.2051 8.19145L16.3807 8.10595L12.864 8.34863L10.7582 8.65557L8.65864 9.19298L6.79371 9.7219L0.15202 11.6752L1.3683 15.7179Z" fill="#3F76C1"/>
<path d="M16.0054 42.9859L14.2517 37.427L13.639 35.5571L13.1373 33.4518L12.982 31.3432L12.9422 29.2336L13.3819 28.0573L13.826 27.1154L14.2745 26.408L14.7275 25.9349L15.1804 25.4618L15.6356 25.1059L16.0908 24.75L16.5482 24.5114L17.0056 24.2727L17.4629 24.034L17.9203 23.7953L18.6086 23.5545L19.2969 23.3137L19.983 22.9557L20.4425 22.7169L20.4407 22.717L19.5101 22.374L18.2357 22.1513L14.1948 22.1887L13.0447 22.4338L12.3564 22.6746L11.4394 23.0348L10.7533 23.3928L10.0739 24.1024L9.40108 25.1636L8.95476 25.9883L8.74378 27.0453L8.64382 27.8667L8.82568 31.3817L9.09644 33.4892L9.5981 35.5945L10.0953 37.4655L11.9359 44.1298L16.0054 42.9859Z" fill="#97C069"/>
<path d="M43.3954 28.8097L37.7877 30.428L35.9009 30.9951L33.7809 31.4457L31.666 31.5506L29.5527 31.5402L28.3854 31.0734L27.4529 30.6077L26.7551 30.1431L26.2922 29.6798L25.8293 29.2164L25.4838 28.7536L25.1383 28.2908L24.9102 27.8286L24.6821 27.3663L24.454 26.9041L24.2259 26.4419L24.0011 25.7491L23.7764 25.0564L23.4342 24.363L23.2061 23.8987L23.2061 23.9005L22.8405 24.8212L22.5873 26.088L22.5286 30.1223L22.7467 31.2762L22.9714 31.9689L23.3102 32.8928L23.6524 33.5861L24.3467 34.2812L25.3933 34.978L26.2084 35.4431L27.2617 35.6788L28.0819 35.7981L31.6057 35.7002L33.7223 35.4801L35.8422 35.0294L37.7274 34.5776L44.444 32.8989L43.3954 28.8097Z" fill="#F48F44"/>
<path d="M29.1069 1.08895L30.7182 6.69082L31.2836 8.5756L31.7266 10.6941L31.8132 12.8093L31.7809 14.9233L31.2877 16.0933L30.798 17.0283L30.312 17.7285L29.8295 18.1938L29.3471 18.6591L28.8664 19.0069L28.3857 19.3547L27.9068 19.5851L27.428 19.8155L26.9491 20.0459L26.4702 20.2763L25.7537 20.5044L25.0372 20.7326L24.3188 21.0781L23.8378 21.3086L23.8396 21.3085L24.7852 21.6699L26.0886 21.9172L30.2474 21.9566L31.4392 21.733L32.1558 21.5048L33.1117 21.1615L33.83 20.8159L34.5537 20.118L35.2828 19.0677L35.7707 18.2501L36.0244 17.1954L36.1558 16.3744L36.0908 12.8498L35.8854 10.7336L35.4424 8.61502L34.9958 6.73138L33.3336 0.0205147L29.1069 1.08895Z" fill="#F8BC26"/>
<path d="M1.53647 28.6858L7.09845 30.3275L8.96967 30.9027L11.074 31.3604L13.1769 31.4681L15.2792 31.4593L16.4452 30.9879L17.3776 30.5175L18.0765 30.0481L18.5417 29.5797L19.0069 29.1113L19.3553 28.6433L19.7038 28.1754L19.9354 27.7079L20.167 27.2405L20.3986 26.7731L20.6303 26.3056L20.8609 25.6049L21.0916 24.9043L21.439 24.2031L21.6707 23.7335L21.6706 23.7353L22.025 24.6671L22.264 25.9489L22.2812 30.0304L22.0525 31.1976L21.8219 31.8983L21.4754 32.8327L21.128 33.5338L20.4301 34.2365L19.3819 34.9406L18.5663 35.4105L17.5161 35.6481L16.699 35.7682L13.1946 35.6663L11.0912 35.4419L8.98689 34.9843L7.11615 34.5257L0.451671 32.8221L1.53647 28.6858Z" fill="#97C069"/>
<path d="M29.1552 43.0859L30.8497 37.5476L31.4427 35.6846L31.92 33.5878L32.0469 31.4893L32.0571 29.3902L31.5955 28.2218L31.1328 27.2866L30.669 26.5847L30.2041 26.116L29.7391 25.6473L29.2736 25.2952L28.8081 24.9431L28.3421 24.7076L27.876 24.4721L27.4099 24.2366L26.9439 24.0012L26.2442 23.7646L25.5445 23.5279L24.8454 23.1747L24.3772 22.9392L24.3791 22.9393L25.3155 22.5939L26.6013 22.3669L30.6893 22.3865L31.8561 22.6254L32.5558 22.862L33.4885 23.2163L34.1876 23.5695L34.885 24.2726L35.5807 25.3255L36.0439 26.1441L36.2725 27.1947L36.3853 28.0116L36.2516 31.5095L36.0079 33.6075L35.5306 35.7043L35.0544 37.5679L33.288 44.2063L29.1552 43.0859Z" fill="#F48F44"/>
<path d="M43.3541 15.507L37.8033 13.828L35.936 13.2402L33.8348 12.7684L31.7328 12.6465L29.6304 12.6412L28.4612 13.1048L27.5257 13.5689L26.8237 14.0336L26.3553 14.4989L25.8869 14.9642L25.5354 15.4297L25.1838 15.8953L24.949 16.3612L24.7143 16.8271L24.4795 17.293L24.2447 17.7588L24.0093 18.4579L23.774 19.1571L23.4218 19.8559L23.1869 20.3239L23.1871 20.3221L22.839 19.3879L22.6086 18.1046L22.6189 14.023L22.8555 12.8574L23.0909 12.1583L23.4436 11.2263L23.7958 10.5274L24.4983 9.82951L25.5513 9.13246L26.37 8.66805L27.4218 8.43747L28.2397 8.32291L31.7434 8.44835L33.8452 8.68687L35.9463 9.15863L37.8139 9.6298L44.4668 11.3782L43.3541 15.507Z" fill="#F8BC26"/>
</svg>

<svg xmlns="http://www.w3.org/2000/svg" width="45" height="45" fill="none"><ellipse cx="5.706" cy="5.482" fill="#3F76C1" rx="2.92" ry="2.915"/><ellipse cx="39.347" cy="5.482" fill="#F8BC26" rx="2.92" ry="2.915"/><ellipse cx="39.347" cy="38.833" fill="#F48F44" rx="2.92" ry="2.915"/><ellipse cx="5.706" cy="38.833" fill="#97C069" rx="2.92" ry="2.915"/><path fill="#3F76C1" d="m15.78 1.1-1.668 5.547-.584 1.866-.467 2.099-.117 2.1v2.098l.467 1.166.467.933.468.7.467.466.467.467.467.35.467.35.468.233.467.233.467.233.467.234.7.233.702.233.7.35.47.233h-.002l-.935.35-1.285.233h-4.087l-1.168-.233-.701-.233-.935-.35-.7-.35-.701-.7-.701-1.05-.467-.815-.234-1.05-.117-.816.117-3.499.234-2.099.467-2.1.467-1.865L11.642 0l4.138 1.1Z"/><path fill="#3F76C1" d="m1.368 15.718 5.537-1.848 1.861-.644 2.1-.537 2.109-.192 2.112-.076 1.185.418.951.427.716.436.482.444.482.444.364.448.364.448.247.452.247.453.247.452.247.453.253.683.253.683.37.678.248.455v-.002l.327-.935.201-1.276-.108-4.033-.265-1.144-.253-.683-.377-.91-.37-.678-.723-.666-1.074-.653-.834-.431-1.062-.193-.824-.085-3.517.243-2.106.307-2.1.537-1.864.529-6.642 1.953 1.216 4.043Z"/><path fill="#97C069" d="m16.005 42.986-1.753-5.559-.613-1.87-.502-2.105-.155-2.109-.04-2.11.44-1.176.444-.942.448-.707.454-.473.452-.473.456-.356.455-.356.457-.239.458-.238.457-.239.457-.239.689-.24.688-.241.686-.358.46-.24-.002.001-.93-.343-1.275-.223-4.041.038-1.15.245-.689.24-.917.36-.686.359-.68.71-.672 1.06-.446.825-.211 1.057-.1.822.182 3.515.27 2.107.502 2.105.497 1.871 1.84 6.665 4.07-1.144Z"/><path fill="#F48F44" d="m43.395 28.81-5.607 1.618-1.887.567-2.12.45-2.115.106-2.113-.01-1.168-.468-.932-.465-.698-.465-.463-.463-.463-.464-.345-.462-.346-.463-.228-.462-.228-.463-.228-.462-.228-.462-.225-.693-.225-.693-.342-.693-.228-.464v.002l-.366.92-.253 1.267-.058 4.034.218 1.154.224.693.34.924.341.693.695.695 1.046.697.815.465 1.054.236.82.12 3.524-.099 2.116-.22 2.12-.45 1.885-.452 6.717-1.68-1.049-4.088Z"/><path fill="#F8BC26" d="m29.107 1.089 1.611 5.602.566 1.885.443 2.118.086 2.115-.032 2.114-.493 1.17-.49.935-.486.7-.483.466-.482.465-.48.348-.481.348-.48.23-.478.23-.479.23-.479.231-.716.228-.717.229-.718.345-.481.23h.002l.945.362 1.304.247 4.158.04 1.192-.224.717-.228.956-.343.718-.346.724-.698.729-1.05.488-.818.253-1.055.132-.82-.065-3.525-.206-2.116-.443-2.119-.446-1.884-1.662-6.71-4.227 1.068Z"/><path fill="#97C069" d="m1.536 28.686 5.562 1.642 1.872.575 2.104.457 2.103.108 2.102-.009 1.166-.471.933-.47.698-.47.466-.468.465-.469.348-.468.349-.468.231-.467.232-.467.232-.468.231-.467.23-.701.232-.7.347-.702.232-.47v.002l.354.932.239 1.282.017 4.081-.229 1.168-.23.7-.347.935-.347.7-.698.703-1.048.705-.816.47-1.05.237-.817.12-3.504-.102-2.104-.224-2.104-.458-1.87-.458-6.665-1.704 1.084-4.136Z"/><path fill="#F48F44" d="m29.155 43.086 1.695-5.538.593-1.863.477-2.097.127-2.099.01-2.099-.462-1.168-.462-.935-.464-.702-.465-.469-.465-.469-.465-.352-.466-.352-.466-.235-.466-.236-.466-.235-.466-.236-.7-.236-.7-.237-.699-.353-.468-.236h.002l.936-.345 1.286-.227 4.088.02 1.167.238.7.237.933.354.699.354.697.703.696 1.053.463.818.229 1.05.112.818-.133 3.497-.244 2.099-.477 2.096-.477 1.864-1.766 6.638-4.133-1.12Z"/><path fill="#F8BC26" d="m43.354 15.507-5.55-1.679-1.868-.588-2.101-.472-2.102-.122-2.103-.005-1.169.464-.935.464-.702.465-.469.465-.468.465-.352.466-.351.465-.235.466-.235.466-.234.466-.235.466-.236.699-.235.7-.352.698-.235.468v-.002l-.348-.934-.23-1.283.01-4.082.236-1.166.236-.699.353-.932.352-.699.702-.697 1.053-.698.819-.464 1.052-.23.818-.115 3.503.125 2.102.239 2.101.472 1.868.47 6.653 1.75-1.113 4.128Z"/></svg>
